icons/headphone-fancyB.svg

<svg width="24" height="24" viewBox="0 0 24 24" fill="none" xmlns="http://www.w3.org/2000/svg">
<path fill-rule="evenodd" clip-rule="evenodd" d="M12 4.19995C7.01416 4.19995 2.94995 8.26416 2.94995 13.25V17.25C2.94995 17.6642 2.61416 18 2.19995 18C1.78574 18 1.44995 17.6642 1.44995 17.25V13.25C1.44995 7.43574 6.18574 2.69995 12 2.69995C14.8973 2.69995 17.5928 3.87814 19.4378 5.82715C21.3635 7.75651 22.55 10.3405 22.55 13.25V17.25C22.55 17.6642 22.2142 18 21.8 18C21.3857 18 21.05 17.6642 21.05 17.25V13.25C21.05 10.7632 20.0395 8.55012 18.3696 6.88028L18.362 6.87271L18.3547 6.86492C16.7998 5.2186 14.4987 4.19995 12 4.19995Z" fill="black"/>
<path d="M6.69985 20.55C5.49985 20.55 4.59985 19.65 4.59985 18.45V15.95C4.59985 14.75 5.49985 13.85 6.69985 13.85C7.89985 13.85 8.79985 14.75 8.79985 15.95V18.45C8.79985 19.65 7.79985 20.55 6.69985 20.55Z" fill="black"/>
<path fill-rule="evenodd" clip-rule="evenodd" d="M6.69985 14.6C5.91407 14.6 5.34985 15.1642 5.34985 15.95V18.45C5.34985 19.2358 5.91407 19.8 6.69985 19.8C7.40901 19.8 8.04985 19.2128 8.04985 18.45V15.95C8.04985 15.1642 7.48564 14.6 6.69985 14.6ZM3.84985 15.95C3.84985 14.3358 5.08564 13.1 6.69985 13.1C8.31407 13.1 9.54985 14.3358 9.54985 15.95V18.45C9.54985 20.0872 8.1907 21.3 6.69985 21.3C5.08564 21.3 3.84985 20.0642 3.84985 18.45V15.95Z" fill="black"/>
<path d="M17.3 20.55C16.1 20.55 15.2 19.65 15.2 18.45V15.95C15.2 14.75 16.1 13.85 17.3 13.85C18.5 13.85 19.4 14.75 19.4 15.95V18.45C19.4 19.65 18.4 20.55 17.3 20.55Z" fill="black"/>
<path fill-rule="evenodd" clip-rule="evenodd" d="M17.3 14.6C16.5142 14.6 15.95 15.1642 15.95 15.95V18.45C15.95 19.2358 16.5142 19.8 17.3 19.8C18.0091 19.8 18.65 19.2128 18.65 18.45V15.95C18.65 15.1642 18.0857 14.6 17.3 14.6ZM14.45 15.95C14.45 14.3358 15.6857 13.1 17.3 13.1C18.9142 13.1 20.15 14.3358 20.15 15.95V18.45C20.15 20.0872 18.7908 21.3 17.3 21.3C15.6857 21.3 14.45 20.0642 14.45 18.45V15.95Z" fill="black"/>
<path fill-rule="evenodd" clip-rule="evenodd" d="M18.6499 17.25C18.6499 16.8358 18.9857 16.5 19.3999 16.5H21.7999C22.2141 16.5 22.5499 16.8358 22.5499 17.25C22.5499 17.6642 22.2141 18 21.7999 18H19.3999C18.9857 18 18.6499 17.6642 18.6499 17.25Z" fill="black"/>
<path fill-rule="evenodd" clip-rule="evenodd" d="M1.44995 17.25C1.44995 16.8358 1.78574 16.5 2.19995 16.5H4.59995C5.01416 16.5 5.34995 16.8358 5.34995 17.25C5.34995 17.6642 5.01416 18 4.59995 18H2.19995C1.78574 18 1.44995 17.6642 1.44995 17.25Z" fill="black"/>
</svg>

<svg xmlns="http://www.w3.org/2000/svg" fill="none" viewBox="0 0 24 24">
  <path fill="#000" fill-rule="evenodd" d="M12 4.2c-4.986 0-9.05 4.064-9.05 9.05v4a.75.75 0 0 1-1.5 0v-4C1.45 7.436 6.186 2.7 12 2.7c2.897 0 5.593 1.178 7.438 3.127 1.925 1.93 3.112 4.514 3.112 7.423v4a.75.75 0 0 1-1.5 0v-4c0-2.487-1.01-4.7-2.68-6.37l-.008-.007-.007-.008C16.8 5.219 14.499 4.2 12 4.2Z" clip-rule="evenodd"/>
  <path fill="#000" d="M6.7 20.55c-1.2 0-2.1-.9-2.1-2.1v-2.5c0-1.2.9-2.1 2.1-2.1 1.2 0 2.1.9 2.1 2.1v2.5c0 1.2-1 2.1-2.1 2.1Z"/>
  <path fill="#000" fill-rule="evenodd" d="M6.7 14.6c-.786 0-1.35.564-1.35 1.35v2.5c0 .786.564 1.35 1.35 1.35.709 0 1.35-.587 1.35-1.35v-2.5c0-.786-.564-1.35-1.35-1.35Zm-2.85 1.35c0-1.614 1.236-2.85 2.85-2.85s2.85 1.236 2.85 2.85v2.5c0 1.637-1.36 2.85-2.85 2.85-1.614 0-2.85-1.236-2.85-2.85v-2.5Z" clip-rule="evenodd"/>
  <path fill="#000" d="M17.3 20.55c-1.2 0-2.1-.9-2.1-2.1v-2.5c0-1.2.9-2.1 2.1-2.1 1.2 0 2.1.9 2.1 2.1v2.5c0 1.2-1 2.1-2.1 2.1Z"/>
  <path fill="#000" fill-rule="evenodd" d="M17.3 14.6c-.786 0-1.35.564-1.35 1.35v2.5c0 .786.564 1.35 1.35 1.35.71 0 1.35-.587 1.35-1.35v-2.5c0-.786-.564-1.35-1.35-1.35Zm-2.85 1.35c0-1.614 1.236-2.85 2.85-2.85s2.85 1.236 2.85 2.85v2.5c0 1.637-1.36 2.85-2.85 2.85-1.614 0-2.85-1.236-2.85-2.85v-2.5Z" clip-rule="evenodd"/>
  <path fill="#000" fill-rule="evenodd" d="M18.65 17.25a.75.75 0 0 1 .75-.75h2.4a.75.75 0 0 1 0 1.5h-2.4a.75.75 0 0 1-.75-.75Zm-17.2 0a.75.75 0 0 1 .75-.75h2.4a.75.75 0 0 1 0 1.5H2.2a.75.75 0 0 1-.75-.75Z" clip-rule="evenodd"/>
</svg>
